src/assets/images/AnalysisNewPipeline.svg

<svg width="301" height="211" viewBox="0 0 301 211" fill="none" xmlns="http://www.w3.org/2000/svg">
<g clip-path="url(#clip0_1504_36061)">
<path d="M16.5972 181.828C17.7813 172.302 23.6826 162.917 32.7638 159.817C29.1824 169.622 29.1832 180.377 32.7659 190.181C34.1614 193.957 36.1065 198.011 34.7939 201.816C33.9772 204.184 31.9793 205.996 29.7461 207.129C27.5127 208.262 25.0341 208.801 22.5866 209.331L22.1049 209.729C18.2194 200.952 15.413 191.353 16.5972 181.828Z" fill="#F0F0F0"/>
<path d="M32.8539 159.997C27.5654 165.925 24.2785 173.369 23.46 181.271C23.2536 182.97 23.3161 184.69 23.6451 186.368C24.0184 187.993 24.8199 189.488 25.9663 190.699C27.0126 191.849 28.2159 192.904 28.9645 194.288C29.3371 195.002 29.5547 195.787 29.6028 196.591C29.6509 197.396 29.5285 198.201 29.2437 198.955C28.5827 200.851 27.2801 202.397 25.9537 203.864C24.481 205.493 22.9255 207.162 22.2995 209.321C22.2236 209.583 21.8222 209.45 21.8979 209.189C22.987 205.431 26.6334 203.297 28.3723 199.912C29.1837 198.333 29.5243 196.5 28.7636 194.833C28.0984 193.375 26.8585 192.286 25.7891 191.131C24.6535 189.967 23.8201 188.542 23.3617 186.981C22.9483 185.325 22.8197 183.61 22.9814 181.91C23.2845 178.078 24.188 174.317 25.6589 170.766C27.3152 166.703 29.6539 162.954 32.5741 159.68C32.7549 159.478 33.0335 159.796 32.8539 159.997Z" fill="white"/>
<path d="M23.5737 178.711C22.2669 178.394 21.1154 177.622 20.3249 176.534C19.5344 175.446 19.1564 174.112 19.2582 172.771C19.2798 172.499 19.7023 172.52 19.6807 172.792C19.5835 174.041 19.9358 175.283 20.674 176.295C21.4122 177.307 22.4877 178.021 23.7063 178.31C23.9711 178.373 23.8369 178.774 23.5737 178.711Z" fill="white"/>
<path d="M25.359 190.185C27.7192 188.776 29.4616 186.528 30.2386 183.89C30.3154 183.629 30.7169 183.762 30.6402 184.023C29.8265 186.766 28.0085 189.102 25.5492 190.563C25.3147 190.702 25.1258 190.324 25.359 190.185Z" fill="white"/>
<path d="M27.7074 167.104C28.1875 167.332 28.7167 167.438 29.2475 167.411C29.7783 167.384 30.2941 167.225 30.7486 166.95C30.9812 166.808 31.1699 167.186 30.9388 167.327C30.4352 167.63 29.8654 167.804 29.279 167.835C28.6926 167.866 28.1075 167.753 27.5748 167.506C27.5227 167.487 27.4797 167.448 27.4547 167.399C27.4298 167.349 27.4246 167.292 27.4403 167.239C27.4582 167.185 27.4962 167.142 27.5462 167.116C27.5962 167.091 27.6542 167.087 27.7074 167.104Z" fill="white"/>
<path d="M60.4443 176.831C60.3015 176.924 60.1588 177.016 60.0159 177.113C58.1034 178.371 56.2962 179.782 54.6122 181.333C54.4801 181.451 54.348 181.572 54.2195 181.694C50.2022 185.473 46.9212 189.966 44.5434 194.944C43.599 196.925 42.8067 198.976 42.1734 201.078C41.2988 203.98 40.5815 207.197 38.8504 209.572C38.6725 209.822 38.4794 210.06 38.2721 210.286H22.6281C22.5926 210.268 22.5568 210.254 22.5211 210.236L21.8965 210.264C21.9216 210.154 21.95 210.04 21.9751 209.929C21.9894 209.865 22.0072 209.8 22.0214 209.736C22.0321 209.693 22.0429 209.65 22.05 209.611C22.0535 209.597 22.0572 209.582 22.0607 209.572C22.0678 209.533 22.0786 209.497 22.0858 209.461C22.2428 208.822 22.4046 208.183 22.5711 207.544C22.5711 207.54 22.5711 207.54 22.5746 207.537C23.8561 202.67 25.555 197.868 27.9285 193.476C27.9999 193.344 28.0712 193.208 28.1498 193.076C29.2306 191.103 30.4709 189.221 31.8583 187.449C32.6211 186.482 33.4323 185.553 34.289 184.668C36.5067 182.384 39.0698 180.464 41.8842 178.977C47.4951 176.013 53.9911 174.878 59.9875 176.688C60.1409 176.734 60.2909 176.781 60.4443 176.831Z" fill="#F0F0F0"/>
<path d="M60.4092 177.029C52.619 178.577 45.5145 182.541 40.1046 188.358C38.9177 189.589 37.9324 191 37.1848 192.539C36.5049 194.061 36.2449 195.738 36.4319 197.394C36.5752 198.943 36.9009 200.51 36.6655 202.066C36.5332 202.861 36.2344 203.618 35.7887 204.29C35.3431 204.961 34.7607 205.53 34.0796 205.96C32.4106 207.076 30.4402 207.526 28.4981 207.899C26.3418 208.312 24.0954 208.708 22.2957 210.055C22.0777 210.219 21.8372 209.87 22.0549 209.707C25.1861 207.363 29.3821 207.855 32.8075 206.2C34.4058 205.428 35.7812 204.169 36.1771 202.38C36.5234 200.816 36.1888 199.199 36.0302 197.633C35.8241 196.019 36.0162 194.38 36.5895 192.858C37.2564 191.286 38.1858 189.84 39.3379 188.58C41.8864 185.702 44.8713 183.244 48.1833 181.294C51.9508 179.048 56.0748 177.463 60.3767 176.608C60.6429 176.555 60.6737 176.977 60.4092 177.029Z" fill="white"/>
<path d="M41.7363 186.382C40.8839 185.342 40.429 184.032 40.4528 182.687C40.4766 181.342 40.9776 180.049 41.8662 179.039C42.0467 178.836 42.3716 179.107 42.1908 179.311C41.3616 180.249 40.8951 181.454 40.8755 182.706C40.8559 183.959 41.2845 185.177 42.0839 186.141C42.2574 186.351 41.9088 186.591 41.7363 186.382H41.7363Z" fill="white"/>
<path d="M36.2559 196.619C38.9889 196.915 41.733 196.169 43.941 194.531C44.1596 194.369 44.4002 194.717 44.1818 194.879C41.8809 196.579 39.0237 197.349 36.1804 197.035C35.9094 197.005 35.9864 196.589 36.2559 196.619V196.619Z" fill="white"/>
<path d="M52.023 179.604C52.269 180.075 52.6281 180.478 53.0682 180.776C53.5082 181.074 54.0154 181.259 54.5442 181.312C54.8154 181.339 54.7381 181.755 54.4686 181.728C53.8847 181.666 53.3248 181.462 52.8379 181.134C52.351 180.806 51.9518 180.363 51.6754 179.845C51.6452 179.798 51.634 179.742 51.6439 179.687C51.6538 179.632 51.6842 179.583 51.7288 179.55C51.775 179.519 51.8318 179.507 51.8869 179.517C51.942 179.527 51.9909 179.558 52.023 179.604Z" fill="white"/>
<path d="M289.863 109.956H239.537V109.242H289.149V76.0369H289.863V109.956Z" fill="#E4E4E4"/>
<path d="M126.749 123.881H126.035V89.9617H176.361V90.6758H126.749V123.881Z" fill="#E4E4E4"/>
<path d="M200.275 48.1872H149.949V14.2678H150.663V47.4731H200.275V48.1872Z" fill="#E4E4E4"/>
<path d="M139.934 0C139.664 0.000505371 139.406 0.108132 139.215 0.299258C139.024 0.490384 138.917 0.74939 138.917 1.01943C138.917 1.28947 139.024 1.54848 139.215 1.7396C139.406 1.93073 139.664 2.03835 139.934 2.03886H160.607C160.877 2.03835 161.136 1.93073 161.326 1.7396C161.517 1.54848 161.624 1.28947 161.624 1.01943C161.624 0.74939 161.517 0.490384 161.326 0.299258C161.136 0.108132 160.877 0.000505371 160.607 0H139.934Z" fill="#3F3D56"/>
<path d="M139.935 6.0061C139.664 6.0061 139.405 6.11351 139.214 6.30469C139.023 6.49587 138.916 6.75516 138.916 7.02553C138.916 7.2959 139.023 7.5552 139.214 7.74638C139.405 7.93756 139.664 8.04497 139.935 8.04497H160.607C160.877 8.04446 161.136 7.93684 161.327 7.74571C161.517 7.55458 161.624 7.29557 161.624 7.02553C161.624 6.75549 161.517 6.49649 161.327 6.30536C161.136 6.11424 160.877 6.00661 160.607 6.0061H139.935Z" fill="#3F3D56"/>
<path d="M299.981 71.4712C300.251 71.4707 300.51 71.3631 300.7 71.172C300.891 70.9809 300.998 70.7219 300.998 70.4518C300.998 70.1818 300.891 69.9228 300.7 69.7316C300.51 69.5405 300.251 69.4329 299.981 69.4324H279.306C279.172 69.4321 279.039 69.4583 278.916 69.5094C278.792 69.5606 278.679 69.6356 278.584 69.7303C278.489 69.825 278.414 69.9374 278.363 70.0612C278.312 70.1851 278.285 70.3178 278.285 70.4518C278.285 70.5858 278.312 70.7186 278.363 70.8424C278.414 70.9662 278.489 71.0786 278.584 71.1733C278.679 71.268 278.792 71.3431 278.916 71.3942C279.039 71.4453 279.172 71.4715 279.306 71.4712H299.981Z" fill="#2F2E41"/>
<path d="M299.981 65.4644C300.251 65.4639 300.51 65.3563 300.7 65.1651C300.891 64.974 300.998 64.715 300.998 64.445C300.998 64.1749 300.891 63.9159 300.7 63.7248C300.51 63.5337 300.251 63.426 299.981 63.4255H279.306C279.172 63.4253 279.039 63.4515 278.916 63.5026C278.792 63.5537 278.679 63.6288 278.584 63.7234C278.489 63.8181 278.414 63.9306 278.363 64.0544C278.312 64.1782 278.285 64.3109 278.285 64.445C278.285 64.579 278.312 64.7117 278.363 64.8355C278.414 64.9593 278.489 65.0718 278.584 65.1665C278.679 65.2612 278.792 65.3362 278.916 65.3874C279.039 65.4385 279.172 65.4646 279.306 65.4644H299.981Z" fill="#2F2E41"/>
<path d="M212.411 119.953C204.857 119.953 197.473 117.713 191.193 113.515C184.912 109.317 180.017 103.35 177.127 96.3693C174.236 89.3885 173.48 81.707 174.954 74.2961C176.427 66.8853 180.065 60.078 185.406 54.7351C190.747 49.3922 197.552 45.7536 204.96 44.2795C212.368 42.8054 220.047 43.562 227.026 46.4535C234.004 49.3451 239.969 54.2418 244.165 60.5244C248.362 66.807 250.601 74.1933 250.601 81.7493C250.59 91.8781 246.563 101.589 239.403 108.751C232.243 115.913 222.536 119.942 212.411 119.953ZM212.411 44.2595C204.998 44.2595 197.753 46.4583 191.589 50.5777C185.426 54.6971 180.623 60.5522 177.786 67.4026C174.95 74.253 174.208 81.7909 175.654 89.0632C177.1 96.3356 180.669 103.016 185.91 108.259C191.152 113.502 197.829 117.072 205.099 118.519C212.369 119.965 219.904 119.223 226.752 116.385C233.6 113.548 239.454 108.743 243.572 102.578C247.69 96.4124 249.888 89.1641 249.888 81.7493C249.876 71.8099 245.924 62.2807 238.898 55.2525C231.873 48.2242 222.347 44.2708 212.411 44.2595Z" fill="#E4E4E4"/>
<path d="M197.063 52.4717C199.428 52.4717 201.346 50.5534 201.346 48.1871C201.346 45.8208 199.428 43.9026 197.063 43.9026C194.697 43.9026 192.78 45.8208 192.78 48.1871C192.78 50.5534 194.697 52.4717 197.063 52.4717Z" fill="#6C63FF"/>
<path d="M175.29 94.9602C177.656 94.9602 179.573 93.042 179.573 90.6757C179.573 88.3094 177.656 86.3911 175.29 86.3911C172.925 86.3911 171.007 88.3094 171.007 90.6757C171.007 93.042 172.925 94.9602 175.29 94.9602Z" fill="#6C63FF"/>
<path d="M238.109 114.24C240.475 114.24 242.392 112.322 242.392 109.956C242.392 107.59 240.475 105.671 238.109 105.671C235.744 105.671 233.826 107.59 233.826 109.956C233.826 112.322 235.744 114.24 238.109 114.24Z" fill="#6C63FF"/>
<path d="M115.917 128.446C115.647 128.446 115.388 128.554 115.196 128.745C115.005 128.936 114.898 129.195 114.898 129.466C114.898 129.736 115.005 129.995 115.196 130.187C115.388 130.378 115.647 130.485 115.917 130.485H136.592C136.862 130.485 137.12 130.377 137.311 130.186C137.502 129.995 137.609 129.736 137.609 129.466C137.609 129.196 137.502 128.937 137.311 128.746C137.12 128.554 136.862 128.447 136.592 128.446H115.917Z" fill="#2F2E41"/>
<path d="M115.917 134.453C115.783 134.453 115.65 134.479 115.526 134.53C115.403 134.581 115.29 134.656 115.195 134.751C115.1 134.846 115.025 134.958 114.974 135.082C114.922 135.206 114.896 135.339 114.896 135.473C114.896 135.607 114.922 135.739 114.974 135.863C115.025 135.987 115.1 136.099 115.195 136.194C115.29 136.289 115.403 136.364 115.526 136.415C115.65 136.466 115.783 136.492 115.917 136.492H136.592C136.862 136.491 137.12 136.384 137.311 136.193C137.502 136.002 137.609 135.743 137.609 135.473C137.609 135.203 137.502 134.944 137.311 134.752C137.12 134.561 136.862 134.454 136.592 134.453H115.917Z" fill="#2F2E41"/>
<path d="M64.9212 210.797H59.7263C59.0731 210.797 58.4468 210.537 57.9849 210.075C57.523 209.613 57.2632 208.986 57.2625 208.333V165.02C57.2632 164.367 57.523 163.74 57.9849 163.278C58.4468 162.816 59.073 162.556 59.7263 162.555H64.9212C65.5744 162.556 66.2007 162.816 66.6626 163.278C67.1245 163.74 67.3843 164.367 67.385 165.02V208.333C67.3843 208.986 67.1245 209.613 66.6626 210.075C66.2007 210.537 65.5744 210.797 64.9212 210.797Z" fill="#6C63FF"/>
<path d="M78.716 210.797H73.5209C72.8677 210.797 72.2415 210.537 71.7796 210.075C71.3177 209.613 71.0579 208.986 71.0571 208.333V165.02C71.0579 164.367 71.3177 163.74 71.7796 163.278C72.2415 162.816 72.8677 162.556 73.5209 162.555H78.716C79.3692 162.556 79.9955 162.816 80.4574 163.278C80.9193 163.74 81.1791 164.367 81.1798 165.02V208.333C81.1791 208.986 80.9193 209.613 80.4574 210.075C79.9955 210.537 79.3692 210.797 78.716 210.797Z" fill="#6C63FF"/>
<path d="M69.7283 117.53C79.6421 117.53 87.6789 109.491 87.6789 99.5733C87.6789 89.656 79.6421 81.6165 69.7283 81.6165C59.8144 81.6165 51.7776 89.656 51.7776 99.5733C51.7776 109.491 59.8144 117.53 69.7283 117.53Z" fill="#6C63FF"/>
<path d="M75.8218 177.914H62.908C60.2245 177.924 57.5859 177.225 55.2593 175.887C52.9327 174.549 51.0007 172.62 49.6589 170.296C48.3171 167.971 47.6131 165.332 47.6182 162.648C47.6233 159.963 48.3372 157.328 49.6878 155.008L67.7473 123.718C67.9481 123.37 68.2369 123.081 68.5847 122.88C68.9325 122.679 69.327 122.573 69.7286 122.573C70.1302 122.573 70.5247 122.679 70.8725 122.88C71.2203 123.081 71.5091 123.37 71.7099 123.718L89.4058 154.378C90.7824 156.763 91.5072 159.469 91.5072 162.223C91.5071 164.978 90.7824 167.684 89.4057 170.069C88.029 172.454 86.0489 174.435 83.6644 175.812C81.28 177.189 78.5751 177.914 75.8218 177.914Z" fill="#2F2E41"/>
<path d="M73.9652 107.111C75.1287 107.079 76.5769 107.039 77.6926 106.223C78.0248 105.971 78.2977 105.648 78.4923 105.279C78.6869 104.91 78.7983 104.502 78.8189 104.085C78.8391 103.789 78.7905 103.492 78.6769 103.217C78.5633 102.943 78.3878 102.698 78.1641 102.503C77.5814 102.011 76.7305 101.895 75.8135 102.165L76.7636 95.2194L76.0662 95.1238L74.9493 103.289L75.5317 103.021C76.2069 102.712 77.1337 102.554 77.7097 103.041C77.8511 103.168 77.9613 103.326 78.0317 103.503C78.102 103.68 78.1307 103.871 78.1154 104.06C78.0983 104.371 78.0146 104.674 77.87 104.949C77.7254 105.224 77.5232 105.465 77.2773 105.655C76.4091 106.289 75.2548 106.371 73.9456 106.407L73.9652 107.111Z" fill="#2F2E41"/>
<path d="M84.004 95.8184H80.2126V96.5225H84.004V95.8184Z" fill="#2F2E41"/>
<path d="M72.0369 95.8184H68.2456V96.5225H72.0369V95.8184Z" fill="#2F2E41"/>
<path d="M65.5062 173.898C65.3571 173.584 65.2766 173.242 65.2702 172.894L64.3852 140.64C64.3564 139.298 64.8616 137.999 65.7899 137.029C66.7182 136.06 67.9935 135.499 69.3353 135.469C70.6771 135.44 71.9755 135.945 72.945 136.874C73.9146 137.802 74.4758 139.078 74.5053 140.42L75.3901 172.674C75.4036 173.328 75.1575 173.96 74.7058 174.432C74.2541 174.904 73.6337 175.177 72.9806 175.192L67.7869 175.305C67.3118 175.315 66.8438 175.187 66.4393 174.938C66.0347 174.688 65.7108 174.327 65.5062 173.898Z" fill="#6C63FF"/>
<path d="M68.0629 86.2994C70.2439 89.1526 73.7061 91.0665 77.3654 90.6134C80.85 90.1818 83.7248 87.7522 84.446 84.2737C84.7609 82.6292 84.6759 80.933 84.1984 79.3281C83.7208 77.7233 82.8645 76.2568 81.7018 75.0522C79.2354 72.4572 75.7055 71.0612 72.2115 70.5826C65.5928 69.6758 58.7953 72.008 53.7909 76.3577C51.2778 78.5202 49.2718 81.21 47.9156 84.2359C46.6091 87.2394 45.987 90.496 46.0941 93.7697C46.2864 100.239 49.1193 106.697 54.0074 110.987C54.6145 111.519 55.2499 112.016 55.9109 112.479C56.4684 112.87 56.9966 111.955 56.4439 111.567C51.4381 108.054 48.2451 102.338 47.3688 96.3322C46.9098 93.3061 47.1145 90.2164 47.9686 87.2773C48.8227 84.3383 50.3058 81.6204 52.315 79.3121C56.3571 74.7144 62.2838 71.7261 68.4223 71.4583C74.5991 71.1889 82.3179 73.9474 83.4738 80.8256C83.9919 83.9084 82.8399 87.1489 80.0158 88.6923C76.9922 90.3448 73.2846 89.6648 70.6862 87.5306C70.0499 87.0101 69.4756 86.4181 68.9747 85.7663C68.5674 85.2335 67.6499 85.7591 68.0629 86.2994L68.0629 86.2994Z" fill="#2F2E41"/>
<path d="M136.345 211H0.356924C0.262262 211 0.171477 210.962 0.10454 210.895C0.0376041 210.828 0 210.738 0 210.643C0 210.548 0.0376041 210.457 0.10454 210.39C0.171477 210.323 0.262262 210.286 0.356924 210.286H136.345C136.44 210.286 136.53 210.323 136.597 210.39C136.664 210.457 136.702 210.548 136.702 210.643C136.702 210.738 136.664 210.828 136.597 210.895C136.53 210.962 136.44 211 136.345 211Z" fill="#3F3D56"/>
</g>
<defs>
<clipPath id="clip0_1504_36061">
<rect width="301" height="211" fill="white"/>
</clipPath>
</defs>
</svg>

<svg width="301" height="211" fill="none" xmlns="http://www.w3.org/2000/svg"><g clip-path="url(#a)"><path d="M16.597 181.828c1.184-9.526 7.086-18.911 16.167-22.011a44.241 44.241 0 0 0 .002 30.364c1.395 3.776 3.34 7.83 2.028 11.635-.817 2.368-2.815 4.18-5.048 5.313s-4.712 1.672-7.16 2.202l-.481.398c-3.886-8.777-6.692-18.376-5.508-27.901Z" fill="#F0F0F0"/><path d="M32.854 159.997a37.81 37.81 0 0 0-9.394 21.274 16.284 16.284 0 0 0 .185 5.097 9.342 9.342 0 0 0 2.321 4.331c1.047 1.15 2.25 2.205 2.998 3.589a5.716 5.716 0 0 1 .28 4.667c-.661 1.896-1.964 3.442-3.29 4.909-1.473 1.629-3.029 3.298-3.655 5.457-.075.262-.477.129-.401-.132 1.089-3.758 4.735-5.892 6.474-9.277.812-1.579 1.152-3.412.392-5.079-.666-1.458-1.905-2.547-2.975-3.702a9.963 9.963 0 0 1-2.427-4.15 15.053 15.053 0 0 1-.38-5.071 36.68 36.68 0 0 1 2.677-11.144 38.473 38.473 0 0 1 6.915-11.086c.18-.202.46.116.28.317Z" fill="#fff"/><path d="M23.574 178.711a5.668 5.668 0 0 1-4.316-5.94c.022-.272.444-.251.423.021a5.252 5.252 0 0 0 4.025 5.518c.265.063.13.464-.132.401Zm1.785 11.474a10.926 10.926 0 0 0 4.88-6.295c.076-.261.478-.128.401.133a11.367 11.367 0 0 1-5.09 6.54c-.235.139-.424-.239-.191-.378Zm2.348-23.081a3.21 3.21 0 0 0 3.042-.154c.232-.142.42.236.19.377a3.586 3.586 0 0 1-3.364.179.219.219 0 0 1-.134-.267.214.214 0 0 1 .105-.123.215.215 0 0 1 .161-.012Z" fill="#fff"/><path d="M60.444 176.831c-.143.093-.285.185-.428.282a42.241 42.241 0 0 0-5.404 4.22 19.08 19.08 0 0 0-.393.361 44.558 44.558 0 0 0-9.676 13.25 43.245 43.245 0 0 0-2.37 6.134c-.874 2.902-1.592 6.119-3.323 8.494a7.33 7.33 0 0 1-.578.714H22.628c-.035-.018-.071-.032-.107-.05l-.625.028.08-.335c.013-.064.031-.129.045-.193.011-.043.022-.086.029-.125l.01-.039c.008-.039.019-.075.026-.111.157-.639.319-1.278.485-1.917 0-.004 0-.004.004-.007 1.281-4.867 2.98-9.669 5.354-14.061.07-.132.142-.268.22-.4a41.362 41.362 0 0 1 3.71-5.627 36.5 36.5 0 0 1 2.43-2.781 30.344 30.344 0 0 1 7.595-5.691c5.611-2.964 12.107-4.099 18.103-2.289.154.046.304.093.457.143Z" fill="#F0F0F0"/><path d="M60.41 177.029a37.786 37.786 0 0 0-20.305 11.329 16.258 16.258 0 0 0-2.92 4.181 9.337 9.337 0 0 0-.753 4.855c.143 1.549.469 3.116.233 4.672a5.721 5.721 0 0 1-2.585 3.894c-1.67 1.116-3.64 1.566-5.582 1.939-2.156.413-4.403.809-6.202 2.156-.218.164-.459-.185-.241-.348 3.131-2.344 7.327-1.852 10.752-3.507 1.599-.772 2.974-2.031 3.37-3.82.346-1.564.012-3.181-.147-4.747a9.964 9.964 0 0 1 .56-4.775 15.048 15.048 0 0 1 2.748-4.278 36.653 36.653 0 0 1 8.845-7.286 38.45 38.45 0 0 1 12.194-4.686c.266-.053.297.369.032.421Z" fill="#fff"/><path d="M41.736 186.382a5.671 5.671 0 0 1 .13-7.343c.18-.203.506.068.325.272a5.251 5.251 0 0 0-.107 6.83c.173.21-.175.45-.348.241Zm-5.48 10.237c2.733.296 5.477-.45 7.685-2.088.219-.162.46.186.24.348-2.3 1.7-5.157 2.47-8 2.156-.272-.03-.195-.446.075-.416Zm15.767-17.015a3.21 3.21 0 0 0 2.521 1.708c.271.027.194.443-.075.416a3.6 3.6 0 0 1-2.794-1.883.22.22 0 0 1 .054-.295.215.215 0 0 1 .294.054Z" fill="#fff"/><path d="M289.863 109.956h-50.326v-.714h49.612V76.037h.714v33.919Zm-163.114 13.925h-.714v-33.92h50.326v.715h-49.612v33.205Zm73.526-75.694h-50.326v-33.92h.714v33.206h49.612v.714Z" fill="#E4E4E4"/><path d="M139.934 0a1.018 1.018 0 0 0 0 2.039h20.673a1.017 1.017 0 0 0 1.017-1.02A1.019 1.019 0 0 0 160.607 0h-20.673Zm.001 6.006a1.018 1.018 0 1 0 0 2.039h20.672a1.02 1.02 0 0 0 .72-1.74 1.02 1.02 0 0 0-.72-.299h-20.672Z" fill="#3F3D56"/><path d="M299.981 71.471a1.017 1.017 0 0 0 1.017-1.02 1.019 1.019 0 0 0-1.017-1.019h-20.675a1.012 1.012 0 0 0-.722.298 1.01 1.01 0 0 0-.299.722 1.027 1.027 0 0 0 .299.721 1.022 1.022 0 0 0 .722.298h20.675Zm0-6.007a1.016 1.016 0 0 0 1.017-1.019 1.018 1.018 0 0 0-1.017-1.02h-20.675a1.014 1.014 0 0 0-.722.298 1.01 1.01 0 0 0-.299.722 1.026 1.026 0 0 0 .631.942.983.983 0 0 0 .39.077h20.675Z" fill="#2F2E41"/><path d="M212.411 119.953a38.196 38.196 0 0 1-35.284-23.584 38.209 38.209 0 0 1 27.833-52.09 38.181 38.181 0 0 1 39.205 16.245 38.208 38.208 0 0 1 6.436 21.225 38.25 38.25 0 0 1-11.198 27.002 38.226 38.226 0 0 1-26.992 11.202Zm0-75.694a37.472 37.472 0 0 0-34.625 23.144 37.506 37.506 0 0 0 8.124 40.856 37.465 37.465 0 0 0 40.842 8.126 37.478 37.478 0 0 0 16.82-13.807 37.502 37.502 0 0 0 6.316-20.829 37.542 37.542 0 0 0-10.99-26.496 37.51 37.51 0 0 0-26.487-10.993Z" fill="#E4E4E4"/><path d="M197.063 52.472a4.284 4.284 0 1 0-.002-8.568 4.284 4.284 0 0 0 .002 8.568ZM175.29 94.96a4.283 4.283 0 0 0 4.283-4.284 4.283 4.283 0 1 0-8.566 0 4.284 4.284 0 0 0 4.283 4.284Zm62.819 19.28a4.284 4.284 0 1 0-.002-8.57 4.284 4.284 0 0 0 .002 8.57Z" fill="#6C63FF"/><path d="M115.917 128.446a1.023 1.023 0 0 0-1.019 1.02c0 .27.107.529.298.721.192.191.451.298.721.298h20.675a1.017 1.017 0 0 0 1.017-1.019 1.018 1.018 0 0 0-1.017-1.02h-20.675Zm0 6.007a1.028 1.028 0 0 0-.722.298 1.012 1.012 0 0 0-.299.722 1.012 1.012 0 0 0 .63.942c.124.051.257.077.391.077h20.675a1.02 1.02 0 0 0 .719-1.74 1.02 1.02 0 0 0-.719-.299h-20.675Z" fill="#2F2E41"/><path d="M64.921 210.797h-5.195a2.463 2.463 0 0 1-2.463-2.464V165.02a2.468 2.468 0 0 1 2.463-2.465h5.195a2.468 2.468 0 0 1 2.464 2.465v43.313a2.468 2.468 0 0 1-2.464 2.464Zm13.795 0h-5.195a2.463 2.463 0 0 1-2.464-2.464V165.02a2.469 2.469 0 0 1 2.464-2.465h5.195a2.468 2.468 0 0 1 2.464 2.465v43.313a2.468 2.468 0 0 1-2.464 2.464Zm-8.988-93.267c9.914 0 17.95-8.039 17.95-17.957 0-9.917-8.036-17.956-17.95-17.956s-17.95 8.039-17.95 17.956c0 9.918 8.036 17.957 17.95 17.957Z" fill="#6C63FF"/><path d="M75.822 177.914H62.908a15.228 15.228 0 0 1-13.25-7.618 15.245 15.245 0 0 1 .03-15.288l18.06-31.29a2.29 2.29 0 0 1 3.124-.838c.348.201.637.49.838.838l17.696 30.66a15.694 15.694 0 0 1-5.742 21.434 15.682 15.682 0 0 1-7.842 2.102Zm-1.857-70.803c1.164-.032 2.612-.072 3.728-.888a2.859 2.859 0 0 0 1.126-2.138 1.93 1.93 0 0 0-.655-1.582c-.583-.492-1.433-.608-2.35-.338l.95-6.946-.698-.095-1.117 8.165.583-.268c.675-.309 1.602-.467 2.178.02a1.234 1.234 0 0 1 .405 1.019 2.165 2.165 0 0 1-.838 1.595c-.868.634-2.022.716-3.331.752l.02.704Zm10.039-11.293h-3.791v.704h3.791v-.704Zm-11.967 0h-3.791v.704h3.79v-.704Z" fill="#2F2E41"/><path d="M65.506 173.898a2.445 2.445 0 0 1-.236-1.004l-.885-32.254a5.066 5.066 0 0 1 4.95-5.171 5.063 5.063 0 0 1 5.17 4.951l.885 32.254a2.468 2.468 0 0 1-2.41 2.518l-5.193.113a2.473 2.473 0 0 1-2.28-1.407Z" fill="#6C63FF"/><path d="M68.063 86.3c2.18 2.853 5.643 4.767 9.302 4.313 3.485-.431 6.36-2.86 7.081-6.34a10.45 10.45 0 0 0-2.744-9.22c-2.467-2.596-5.996-3.992-9.49-4.47-6.62-.907-13.417 1.425-18.421 5.775a22.573 22.573 0 0 0-5.875 7.878 22.09 22.09 0 0 0-1.822 9.534c.192 6.469 3.025 12.927 7.913 17.217a22.285 22.285 0 0 0 1.904 1.492c.557.391 1.086-.524.533-.912-5.006-3.513-8.199-9.229-9.075-15.235a21.106 21.106 0 0 1 4.946-17.02c4.042-4.598 9.969-7.586 16.107-7.854 6.177-.27 13.896 2.49 15.052 9.368.518 3.082-.634 6.323-3.458 7.866-3.024 1.653-6.731.973-9.33-1.161a10.714 10.714 0 0 1-1.711-1.765c-.408-.532-1.325-.007-.912.533Z" fill="#2F2E41"/><path d="M136.345 211H.357a.357.357 0 0 1 0-.714h135.988a.355.355 0 0 1 .357.357.356.356 0 0 1-.357.357Z" fill="#3F3D56"/></g><defs><clipPath id="a"><path fill="#fff" d="M0 0h301v211H0z"/></clipPath></defs></svg>
